X: 1
T: Back Home Again in Indiana
M: 4/4
L: 1/8
R: Up swing
F:https://www.youtube.com/watch?v=hB3h-1nq8fA
C: James F. Hanley/Ballard MacDonald
K: F
z C3 F2 A2 ||: "F" c4 "Eb7" z4| "D7" z d3 c2 A2 | "G7" G3 C D4 | z4 E2 F2 |
"G7" A6 E2 | "C7" A4 G3 F-| "F6" F8 | "F7" z F3 E2 _E2 |
"Bb" D2 FB-B4-|"Bb" B4 "B7" D4 | "F" C2 FA-A4-|"D7" A4  A2 B2 |
"G7"=B2 A2 E4-| E D6 G-|"G7"-G8| "F7"z C3 F2 A2 :|]
